lib/svgs/sort.svg

<?xml version="1.0" encoding="UTF-8"?>
<svg width="16px" height="16px" viewBox="0 0 16 16" version="1.1" xmlns="http://www.w3.org/2000/svg" xmlns:xlink="http://www.w3.org/1999/xlink">
    <!-- Generator: sketchtool 51.3 (57544) - http://www.bohemiancoding.com/sketch -->
    <title>app/sort</title>
    <desc>Created with sketchtool.</desc>
    <defs></defs>
    <g id="Icons" stroke="none" stroke-width="1" fill="none" fill-rule="evenodd">
        <g id="Web" transform="translate(-387.000000, -665.000000)" fill="#000000" fill-rule="nonzero">
            <g id="app/sort" transform="translate(387.000000, 665.000000)">
                <path d="M0.607527647,8 C0.271999393,8 0,7.73137085 0,7.4 C0,7.06862915 0.271999393,6.8 0.607527647,6.8 L6.8515618,6.8 C7.18709005,6.8 7.45908945,7.06862915 7.45908945,7.4 C7.45908945,7.73137085 7.18709005,8 6.8515618,8 L0.607527647,8 Z M0.607527647,13 C0.271999393,13 0,12.7313708 0,12.4 C0,12.0686292 0.271999393,11.8 0.607527647,11.8 L4.82646964,11.8 C5.1619979,11.8 5.43399729,12.0686292 5.43399729,12.4 C5.43399729,12.7313708 5.1619979,13 4.82646964,13 L0.607527647,13 Z M0.607527647,3 C0.271999393,3 0,2.73137085 0,2.4 C0,2.06862915 0.271999393,1.8 0.607527647,1.8 L8.87665396,1.8 C9.21218221,1.8 9.4841816,2.06862915 9.4841816,2.4 C9.4841816,2.73137085 9.21218221,3 8.87665396,3 L0.607527647,3 Z M11.7561662,12.052 L11.7561662,2.1 C11.7561662,1.768 12.0285411,1.5 12.3636939,1.5 C12.6998592,1.5 12.9722341,1.768 12.9722341,2.1 L12.9722341,12.052 L14.9628997,10.085 C15.1998355,9.851 15.584603,9.851 15.8215388,10.085 C16.0594871,10.319 16.0594871,10.699 15.8215388,10.933 L12.794026,13.924 C12.6796083,14.038 12.5257013,14.1 12.3636939,14.1 C12.2026991,14.1 12.0477795,14.038 11.9343744,13.924 L8.90584904,10.933 C8.66891325,10.699 8.66891325,10.319 8.90584904,10.085 C9.14278482,9.851 9.52755233,9.851 9.76550066,10.085 L11.7561662,12.052 Z" id="sort"></path>
            </g>
        </g>
    </g>
</svg>

<svg xmlns="http://www.w3.org/2000/svg" viewBox="0 0 16 16">
    <path d="M.608 8A.604.604 0 0 1 0 7.4c0-.331.272-.6.608-.6h6.244c.335 0 .607.269.607.6 0 .331-.272.6-.607.6H.608zm0 5A.604.604 0 0 1 0 12.4c0-.331.272-.6.608-.6h4.218c.336 0 .608.269.608.6 0 .331-.272.6-.608.6H.608zm0-10A.604.604 0 0 1 0 2.4c0-.331.272-.6.608-.6h8.269c.335 0 .607.269.607.6 0 .331-.272.6-.607.6H.607zm11.148 9.052V2.1c0-.332.273-.6.608-.6.336 0 .608.268.608.6v9.952l1.99-1.967a.613.613 0 0 1 .86 0 .593.593 0 0 1 0 .848l-3.028 2.991a.606.606 0 0 1-.43.176.604.604 0 0 1-.43-.176l-3.028-2.991a.595.595 0 0 1 0-.848.614.614 0 0 1 .86 0l1.99 1.967z"/>
</svg>
